icons/figma-slides.svg

<svg fill="none" height="12" viewBox="0 0 12 12" width="12" xmlns="http://www.w3.org/2000/svg"><rect fill="#f65009" height="12" rx="2.5" width="12"/><path clip-rule="evenodd" d="m3.14286 2.85143h5.71428c.15156 0 .2969.06021.40406.16737.10717.10716.16737.25251.16737.40406v3.42857c0 .15156-.0602.2969-.16737.40406-.10716.10717-.2525.16737-.40406.16737h-5.71428c-.15156 0-.2969-.0602-.40406-.16737-.10717-.10716-.16737-.2525-.16737-.40406v-3.42857c0-.15155.0602-.2969.16737-.40406.10716-.10716.2525-.16737.40406-.16737zm.96 5.14286h-.96c-.30311 0-.5938-.12041-.80812-.33473-.21433-.21433-.33474-.50502-.33474-.80813v-3.42857c0-.3031.12041-.59379.33474-.80812.21432-.21433.50501-.33474.80812-.33474h5.71428c.30311 0 .5938.12041.80813.33474.21432.21433.33473.50502.33473.80812v3.42857c0 .30311-.12041.5938-.33473.80813-.21433.21432-.50502.33473-.80813.33473h-.96l.37829 1.35143c.02046.07297.01109.15108-.02604.21715s-.09899.11468-.17196.13514-.15108.01109-.21715-.02604c-.06607-.03714-.11468-.09899-.13514-.17196l-.42228-1.50572h-2.60629l-.42171 1.50572c-.02281.07014-.07186.12875-.1369.16356-.06503.03481-.14101.04312-.21202.02318-.07102-.01993-.13158-.06656-.16901-.13012-.03742-.06356-.04881-.13914-.03179-.21091zm-.10286-4.28571c-.15155 0-.2969.0602-.40406.16736-.10716.10717-.16737.25251-.16737.40406 0 .15156.06021.2969.16737.40407.10716.10716.25251.16736.40406.16736s.2969-.0602.40406-.16736c.10716-.10717.16737-.25251.16737-.40407 0-.15155-.06021-.29689-.16737-.40406-.10716-.10716-.25251-.16736-.40406-.16736zm0 1.71428c-.15155 0-.2969.06021-.40406.16737s-.16737.25251-.16737.40406.06021.2969.16737.40406c.10716.10717.25251.16737.40406.16737s.2969-.0602.40406-.16737c.10716-.10716.16737-.25251.16737-.40406s-.06021-.2969-.16737-.40406-.25251-.16737-.40406-.16737z" fill="#fff" fill-rule="evenodd"/></svg>

<svg width="12" height="12" viewBox="0 0 12 12" fill="none" xmlns="http://www.w3.org/2000/svg">
<rect width="12" height="12" rx="2" fill="#F65009"/>
<path fill-rule="evenodd" clip-rule="evenodd" d="M3.14286 2.85143H8.85714C9.0087 2.85143 9.15404 2.91163 9.2612 3.0188C9.36837 3.12596 9.42857 3.2713 9.42857 3.42286V6.85143C9.42857 7.00298 9.36837 7.14832 9.2612 7.25549C9.15404 7.36265 9.0087 7.42286 8.85714 7.42286H3.14286C2.9913 7.42286 2.84596 7.36265 2.7388 7.25549C2.63163 7.14832 2.57143 7.00298 2.57143 6.85143V3.42286C2.57143 3.2713 2.63163 3.12596 2.7388 3.0188C2.84596 2.91163 2.9913 2.85143 3.14286 2.85143ZM4.10286 7.99428H3.14286C2.83975 7.99428 2.54906 7.87388 2.33474 7.65955C2.12041 7.44522 2 7.15453 2 6.85143V3.42286C2 3.11975 2.12041 2.82906 2.33474 2.61473C2.54906 2.40041 2.83975 2.28 3.14286 2.28H8.85714C9.16025 2.28 9.45094 2.40041 9.66527 2.61473C9.87959 2.82906 10 3.11975 10 3.42286V6.85143C10 7.15453 9.87959 7.44522 9.66527 7.65955C9.45094 7.87388 9.16025 7.99428 8.85714 7.99428H7.89714L8.27543 9.34571C8.29589 9.41869 8.28652 9.4968 8.24939 9.56286C8.21226 9.62893 8.1504 9.67754 8.07743 9.698C8.00446 9.71846 7.92635 9.70909 7.86028 9.67196C7.79421 9.63483 7.7456 9.57297 7.72514 9.5L7.30286 7.99428H4.69657L4.27486 9.5C4.25205 9.57015 4.203 9.62876 4.13796 9.66357C4.07293 9.69837 3.99695 9.70668 3.92594 9.68675C3.85492 9.66681 3.79436 9.62019 3.75693 9.55662C3.71951 9.49306 3.70812 9.41748 3.72514 9.34571L4.10286 7.99428ZM4 3.70857C3.84845 3.70857 3.7031 3.76877 3.59594 3.87594C3.48878 3.9831 3.42857 4.12845 3.42857 4.28C3.42857 4.43155 3.48878 4.5769 3.59594 4.68406C3.7031 4.79122 3.84845 4.85143 4 4.85143C4.15155 4.85143 4.2969 4.79122 4.40406 4.68406C4.51122 4.5769 4.57143 4.43155 4.57143 4.28C4.57143 4.12845 4.51122 3.9831 4.40406 3.87594C4.2969 3.76877 4.15155 3.70857 4 3.70857ZM4 5.42286C3.84845 5.42286 3.7031 5.48306 3.59594 5.59022C3.48878 5.69739 3.42857 5.84273 3.42857 5.99428C3.42857 6.14584 3.48878 6.29118 3.59594 6.39835C3.7031 6.50551 3.84845 6.56571 4 6.56571C4.15155 6.56571 4.2969 6.50551 4.40406 6.39835C4.51122 6.29118 4.57143 6.14584 4.57143 5.99428C4.57143 5.84273 4.51122 5.69739 4.40406 5.59022C4.2969 5.48306 4.15155 5.42286 4 5.42286Z" fill="white"/>
</svg>
